packages/react-icons/icons/clipboard-with-check.svg

<svg width="24" height="25" viewBox="0 0 24 25" xmlns="http://www.w3.org/2000/svg"><path fill-rule="evenodd" clip-rule="evenodd" d="M7.13507 4.31016C7.13507 3.8131 7.53802 3.41016 8.03507 3.41016H15.9653C16.4623 3.41016 16.8653 3.8131 16.8653 4.31016V4.67107H18.3901C18.8872 4.67107 19.2901 5.07401 19.2901 5.57107V20.6901C19.2901 21.1871 18.8872 21.5901 18.3901 21.5901H5.61045C5.11339 21.5901 4.71045 21.1871 4.71045 20.6901V5.57107C4.71045 5.07401 5.11339 4.67107 5.61045 4.67107H7.13507V4.31016ZM16.8653 6.76808V6.47107H17.4901V19.7901H6.51045V6.47107H7.13507V6.76808C7.13507 7.26514 7.53802 7.66808 8.03507 7.66808H15.9653C16.4623 7.66808 16.8653 7.26514 16.8653 6.76808ZM8.93507 5.21016V5.86808H15.0653V5.21016H8.93507ZM15.723 12.3524C16.0738 12.0002 16.0727 11.4304 15.7206 11.0796C15.3684 10.7288 14.7986 10.7299 14.4478 11.082L11.0061 14.5368L9.55339 13.0786C9.20258 12.7265 8.63274 12.7254 8.2806 13.0762C7.92847 13.427 7.92739 13.9968 8.2782 14.349L10.3685 16.4472C10.5374 16.6167 10.7668 16.712 11.0061 16.712C11.2454 16.712 11.4748 16.6167 11.6437 16.4472L15.723 12.3524Z"/></svg>

<svg xmlns="http://www.w3.org/2000/svg" width="24" height="25"><path fill-rule="evenodd" d="M7.135 4.31a.9.9 0 0 1 .9-.9h7.93a.9.9 0 0 1 .9.9v.361h1.525a.9.9 0 0 1 .9.9v15.12a.9.9 0 0 1-.9.9H5.61a.9.9 0 0 1-.9-.9V5.57a.9.9 0 0 1 .9-.9h1.525v-.36Zm9.73 2.458v-.297h.625v13.32H6.51V6.47h.625v.297a.9.9 0 0 0 .9.9h7.93a.9.9 0 0 0 .9-.9ZM8.935 5.21v.658h6.13V5.21h-6.13Zm6.788 7.142a.9.9 0 0 0-1.275-1.27l-3.442 3.455-1.453-1.458a.9.9 0 0 0-1.275 1.27l2.09 2.098a.9.9 0 0 0 1.276 0l4.079-4.095Z" clip-rule="evenodd"/></svg>
